img/p/plausible.io.svg

<?xml version="1.0" encoding="UTF-8"?>
<svg width="1000px" height="1000px" viewBox="0 0 1000 1000" version="1.1" xmlns="http://www.w3.org/2000/svg" xmlns:xlink="http://www.w3.org/1999/xlink">
    <!-- Generator: Sketch 64 (93537) - https://sketch.com -->
    <title>Artboard</title>
    <desc>Created with Sketch.</desc>
    <defs>
        <radialGradient cx="79.1305263%" cy="87.6448158%" fx="79.1305263%" fy="87.6448158%" r="96.9897763%" id="radialGradient-1">
            <stop stop-color="#2440E6" offset="0%"></stop>
            <stop stop-color="#5661B3" offset="100%"></stop>
        </radialGradient>
        <radialGradient cx="0%" cy="30.2198829%" fx="0%" fy="30.2198829%" r="62.2688936%" gradientTransform="translate(0.000000,0.302199),scale(1.000000,0.722519),rotate(61.734530),translate(-0.000000,-0.302199)" id="radialGradient-2">
            <stop stop-color="#6574CD" stop-opacity="0.5" offset="0%"></stop>
            <stop stop-color="#6574CD" offset="100%"></stop>
        </radialGradient>
    </defs>
    <g id="Artboard" stroke="none" stroke-width="1" fill="none" fill-rule="evenodd">
        <g id="Group-4" transform="translate(19.000000, 0.000000)">
            <g id="Group-3" transform="translate(-19.000000, 0.000000)">
                <rect id="Rectangle" x="0" y="0" width="1000" height="1000"></rect>
                <g id="Bitmap" transform="translate(124.069479, 0.000000)">
                    <g id="Group" transform="translate(376.923077, 500.000000) scale(-1, 1) rotate(-180.000000) translate(-376.923077, -500.000000) translate(2.233251, -0.000000)">
                        <circle id="Oval" fill="url(#radialGradient-1)" cx="373.69727" cy="624.069479" r="373.449132"></circle>
                        <path d="M309.677419,993.322174 C232.506203,979.92267 167.493797,947.168328 113.647643,894.562869 C58.3126551,840.468576 24.0694789,777.44128 7.44416873,698.781231 L1.7369727,671.982223 L0.992555831,336.498352 L0.248138958,0.76634245 L7.19602978,0.76634245 C11.1662531,0.76634245 23.82134,2.00703724 35.235732,3.24773203 C132.754342,15.158402 215.632754,74.215474 260.794045,163.793638 C272.208437,186.622422 280.397022,212.925151 286.104218,245.679494 C290.818859,273.471057 291.066998,282.652199 290.322581,427.56535 L289.578164,580.170809 L295.533499,595.059146 C303.722084,615.406541 326.30273,637.987186 346.650124,646.175772 L361.538462,652.131107 L500.496278,652.379246 C576.923077,652.379246 643.920596,653.371802 649.131514,654.364357 C673.449132,659.078998 699.503722,679.426392 709.925558,702.007037 C712.903226,708.210511 716.873449,720.36932 718.610422,728.557906 C721.33995,742.205548 721.091811,745.927633 717.121588,761.312248 C704.71464,806.969816 661.042184,870.245251 616.377171,907.217955 C565.756824,949.153439 509.925558,977.193141 449.627792,991.337062 C417.866005,998.533092 345.905707,999.773787 309.677419,993.322174 Z" id="Path" fill="url(#radialGradient-2)" fill-rule="nonzero"></path>
                    </g>
                </g>
            </g>
        </g>
    </g>
</svg>

<svg xmlns="http://www.w3.org/2000/svg" width="1000" height="1000"><defs><radialGradient id="a" cx="79.131%" cy="87.645%" r="96.99%" fx="79.131%" fy="87.645%"><stop offset="0%" stop-color="#2440E6"/><stop offset="100%" stop-color="#5661B3"/></radialGradient><radialGradient id="b" cx="0%" cy="30.22%" r="62.269%" fx="0%" fy="30.22%" gradientTransform="scale(1 .72252)rotate(61.735 -.097 .36)"><stop offset="0%" stop-color="#6574CD" stop-opacity=".5"/><stop offset="100%" stop-color="#6574CD"/></radialGradient></defs><g fill="none" fill-rule="evenodd"><path d="M0 0h1000v1000H0z"/><g transform="matrix(1 0 0 -1 126.303 1000)"><circle cx="373.697" cy="624.069" r="373.449" fill="url(#a)"/><path fill="url(#b)" fill-rule="nonzero" d="M309.677 993.322c-77.17-13.4-142.183-46.154-196.03-98.76C58.314 840.47 24.07 777.443 7.445 698.783l-5.707-26.8-.744-335.484L.248.766h6.948c3.97 0 16.625 1.241 28.04 2.482 97.518 11.91 180.397 70.967 225.558 160.546 11.414 22.828 19.603 49.131 25.31 81.885 4.715 27.792 4.963 36.973 4.219 181.886l-.745 152.606 5.955 14.888c8.19 20.348 30.77 42.928 51.117 51.117l14.888 5.955 138.958.248c76.427 0 143.425.993 148.636 1.985 24.317 4.715 50.372 25.062 60.794 47.643 2.977 6.204 6.947 18.362 8.684 26.55 2.73 13.649 2.482 17.37-1.488 32.755-12.407 45.658-56.08 108.933-100.745 145.906-50.62 41.935-106.451 69.975-166.75 84.12-31.761 7.195-103.721 8.436-139.95 1.984"/></g></g></svg>
